view/frontend/web/svg/awesomeicons6/solid/cube.svg

<svg xmlns="http://www.w3.org/2000/svg" fill="currentColor" viewBox="0 0 512 512"><!--! Font Awesome Free 6.1.1 by @fontawesome - https://fontawesome.com License - https://fontawesome.com/license/free (Icons: CC BY 4.0, Fonts: SIL OFL 1.1, Code: MIT License) Copyright 2022 Fonticons, Inc. --><path d="M234.5 5.709C248.4 .7377 263.6 .7377 277.5 5.709L469.5 74.28C494.1 83.38 512 107.5 512 134.6V377.4C512 404.5 494.1 428.6 469.5 437.7L277.5 506.3C263.6 511.3 248.4 511.3 234.5 506.3L42.47 437.7C17 428.6 0 404.5 0 377.4V134.6C0 107.5 17 83.38 42.47 74.28L234.5 5.709zM256 65.98L82.34 128L256 190L429.7 128L256 65.98zM288 434.6L448 377.4V189.4L288 246.6V434.6z"/></svg>

<svg xmlns="http://www.w3.org/2000/svg" fill="currentColor" viewBox="0 0 512 512"><!--! Font Awesome Free 6.4.0 by @fontawesome - https://fontawesome.com License - https://fontawesome.com/license/free (Icons: CC BY 4.0, Fonts: SIL OFL 1.1, Code: MIT License) Copyright 2023 Fonticons, Inc. --><path d="M234.5 5.7c13.9-5 29.1-5 43.1 0l192 68.6C495 83.4 512 107.5 512 134.6V377.4c0 27-17 51.2-42.5 60.3l-192 68.6c-13.9 5-29.1 5-43.1 0l-192-68.6C17 428.6 0 404.5 0 377.4V134.6c0-27 17-51.2 42.5-60.3l192-68.6zM256 66L82.3 128 256 190l173.7-62L256 66zm32 368.6l160-57.1v-188L288 246.6v188z"/></svg>
